X:123
T: Ach schoenster Schatz, mein Augentrost,
N: D0179A
O: Europa, Mitteleuropa, Deutschland, Untermainfranken, Spessart
N: Inzipit = Variante zum Lied; Variante zu DVA0179
R: Liebes - Lied, Liebeslust
M: 3/4
L: 1/8
K: G
DGA | B2B2AA | G2z
ABc | dedBcd | B2dz
Bc | d2edcB | c2z
dBA | BdcBAG | A2z
DGB | dedBcd | B2z

